X: 249
%
U:~=!turn!
T: Inverary Castle
C:
O:Scotland
B:Keith Norman MacDonald : "The Skye collection of the best reels & strathspeys extant" : 1887
Z:Ralph Palmer
R:Strathspey
M:C
L:1/8
K:D mixolydian
E | B,E E2 B,E {EF}GE | B,EEF GA B2 | B,E E2 B,E GE | DB,G,A, B,DD || z | GA Be dBBA | GA Be Be e2 |
GA Be dB Be | dAFD FA A2 | GA Be dBBA | GA Bf g/f/e/d/ ef | gB AG FEDC | B,G, B,G, B,DD |]


